X: 32397
T: Piper's Broken Finger, The
R: reel
M: 4/4
K: Gmajor
eged G2 Bd|deed ef gz|gedB GBdg|b2 ba ge d2|
eged G2 Bd|e2 ed efga|gedB BABd|b2 ba ge d2|
b3 g a3 a|agab aged|b2 bg a2 ba|gedB BAAG|
b2 bg a3 a|agab aged|BA A2 a2 bz|a2 ba aged|

